images/ic_token_ilink.svg

<svg height="250" viewBox="0 0 250 250" width="250" xmlns="http://www.w3.org/2000/svg" xmlns:xlink="http://www.w3.org/1999/xlink"><linearGradient id="a" gradientUnits="userSpaceOnUse" x1="233.74988129656" x2="33.74998369656" y1="233.74988129656" y2="33.74998369656"><stop offset=".159375" stop-color="#003cda"/><stop offset="1" stop-color="#33dfcc"/></linearGradient><path d="m125 48.203125c15.1875 0 30.039062 4.503906 42.664062 12.941406 12.632813 8.441407 22.476563 20.433594 28.289063 34.464844 5.8125 14.035156 7.332031 29.476563 4.367187 44.375-2.960937 14.894531-10.277343 28.578125-21.015624 39.320313-10.742188 10.738281-24.425782 18.054687-39.320313 21.015624-14.898437 2.964844-30.339844 1.445313-44.375-4.367187-14.03125-5.8125-26.023437-15.65625-34.464844-28.289063-8.4375-12.625-12.941406-27.476562-12.941406-42.664062.027344-20.359375 8.125-39.878906 22.523437-54.273438 14.394532-14.398437 33.914063-22.496093 54.273438-22.523437zm0-48.203125c-24.722656 0-48.890625 7.332031-69.445312 21.066406-20.558594 13.734375-36.578126 33.257813-46.039063 56.097656-9.4609375 22.839844-11.9375 47.976563-7.113281 72.222657 4.824218 24.246093 16.726562 46.519531 34.210937 64.003906 17.480469 17.480469 39.753907 29.382813 64 34.207031 24.246094 4.824219 49.382813 2.347656 72.222657-7.113281 22.839843-9.460937 42.363281-25.484375 56.097656-46.039063 13.734375-20.554687 21.066406-44.722656 21.066406-69.445312 0-33.152344-13.171875-64.945312-36.609375-88.386719-23.445313-23.445312-55.238281-36.613281-88.390625-36.613281zm0 0" fill="url(#a)"/><path d="m125 223.632812c53.933594 0 97.65625-43.722656 97.65625-97.65625 0-53.933593-43.722656-97.65625-97.65625-97.65625s-97.65625 43.722657-97.65625 97.65625c0 53.933594 43.722656 97.65625 97.65625 97.65625zm0 0" fill="#fff"/><path d="m180 181.644531c-7.28125 7.28125-15.945312 13.019531-25.484375 16.875-9.535156 3.855469-19.75 5.746094-30.03125 5.566407-10.21875.203124-20.371094-1.6875-29.835937-5.546876-9.46875-3.863281-18.046876-9.617187-25.21875-16.914062-7.339844-7.15625-13.128907-15.753906-17.003907-25.25-3.878906-9.5-5.761719-19.695312-5.53125-29.953125 0-22.449219 7.523438-41.152344 22.574219-56.113281 7.175781-7.292969 15.757812-13.046875 25.226562-16.90625 9.46875-3.855469 19.625-5.742188 29.84375-5.535156 10.28125-.175782 20.492188 1.722656 30.027344 5.582031s18.195313 9.597656 25.472656 16.878906c15.382813 14.972656 23.070313 33.683594 23.070313 56.128906.195313 10.304688-1.757813 20.535157-5.738281 30.039063-3.980469 9.503906-9.898438 18.070312-17.371094 25.148437zm0 0" fill="#2a5ada"/><path d="m125 77.695312 42.410156 24.738282v49.316406l-42.410156 24.742188-42.410156-24.742188v-49.316406zm-24.554688 34.992188v28.808594l24.554688 14.324218 24.554688-14.324218v-28.808594l-24.554688-14.320312zm0 0" fill="#fff" fill-rule="evenodd"/></svg>

<svg xmlns="http://www.w3.org/2000/svg" xmlns:xlink="http://www.w3.org/1999/xlink" width="250px" height="250px" viewBox="0 0 250 250" version="1.1">
<defs>
<linearGradient id="linear0" gradientUnits="userSpaceOnUse" x1="239.360001" y1="239.360001" x2="34.560001" y2="34.560001" gradientTransform="matrix(0.976562,0,0,0.976562,0,0)">
<stop offset="0.159375" style="stop-color:rgb(0%,23.529412%,85.490197%);stop-opacity:1;"/>
<stop offset="1" style="stop-color:rgb(20%,87.450981%,80.000001%);stop-opacity:1;"/>
</linearGradient>
</defs>
<g id="surface1">
<path style=" stroke:none;fill-rule:nonzero;fill:url(#linear0);" d="M 125 48.203125 C 140.1875 48.203125 155.039062 52.707031 167.664062 61.144531 C 180.296875 69.585938 190.140625 81.578125 195.953125 95.609375 C 201.765625 109.644531 203.285156 125.085938 200.320312 139.984375 C 197.359375 154.878906 190.042969 168.5625 179.304688 179.304688 C 168.5625 190.042969 154.878906 197.359375 139.984375 200.320312 C 125.085938 203.285156 109.644531 201.765625 95.609375 195.953125 C 81.578125 190.140625 69.585938 180.296875 61.144531 167.664062 C 52.707031 155.039062 48.203125 140.1875 48.203125 125 C 48.230469 104.640625 56.328125 85.121094 70.726562 70.726562 C 85.121094 56.328125 104.640625 48.230469 125 48.203125 Z M 125 0 C 100.277344 0 76.109375 7.332031 55.554688 21.066406 C 34.996094 34.800781 18.976562 54.324219 9.515625 77.164062 C 0.0546875 100.003906 -2.421875 125.140625 2.402344 149.386719 C 7.226562 173.632812 19.128906 195.90625 36.613281 213.390625 C 54.09375 230.871094 76.367188 242.773438 100.613281 247.597656 C 124.859375 252.421875 149.996094 249.945312 172.835938 240.484375 C 195.675781 231.023438 215.199219 215 228.933594 194.445312 C 242.667969 173.890625 250 149.722656 250 125 C 250 91.847656 236.828125 60.054688 213.390625 36.613281 C 189.945312 13.167969 158.152344 0 125 0 Z M 125 0 "/>
<path style=" stroke:none;fill-rule:nonzero;fill:rgb(100%,100%,100%);fill-opacity:1;" d="M 125 223.632812 C 178.933594 223.632812 222.65625 179.910156 222.65625 125.976562 C 222.65625 72.042969 178.933594 28.320312 125 28.320312 C 71.066406 28.320312 27.34375 72.042969 27.34375 125.976562 C 27.34375 179.910156 71.066406 223.632812 125 223.632812 Z M 125 223.632812 "/>
<path style=" stroke:none;fill-rule:nonzero;fill:rgb(16.470589%,35.294119%,85.490197%);fill-opacity:1;" d="M 180 181.644531 C 172.71875 188.925781 164.054688 194.664062 154.515625 198.519531 C 144.980469 202.375 134.765625 204.265625 124.484375 204.085938 C 114.265625 204.289062 104.113281 202.398438 94.648438 198.539062 C 85.179688 194.675781 76.601562 188.921875 69.429688 181.625 C 62.089844 174.46875 56.300781 165.871094 52.425781 156.375 C 48.546875 146.875 46.664062 136.679688 46.894531 126.421875 C 46.894531 103.972656 54.417969 85.269531 69.46875 70.308594 C 76.644531 63.015625 85.226562 57.261719 94.695312 53.402344 C 104.164062 49.546875 114.320312 47.660156 124.539062 47.867188 C 134.820312 47.691406 145.03125 49.589844 154.566406 53.449219 C 164.101562 57.308594 172.761719 63.046875 180.039062 70.328125 C 195.421875 85.300781 203.109375 104.011719 203.109375 126.457031 C 203.304688 136.761719 201.351562 146.992188 197.371094 156.496094 C 193.390625 166 187.472656 174.566406 180 181.644531 Z M 180 181.644531 "/>
<path style=" stroke:none;fill-rule:evenodd;fill:rgb(100%,100%,100%);fill-opacity:1;" d="M 125 77.695312 L 167.410156 102.433594 L 167.410156 151.75 L 125 176.492188 L 82.589844 151.75 L 82.589844 102.433594 Z M 100.445312 112.6875 L 100.445312 141.496094 L 125 155.820312 L 149.554688 141.496094 L 149.554688 112.6875 L 125 98.367188 Z M 100.445312 112.6875 "/>
</g>
</svg>
